src/icons/mocha.svg

<svg
  xml:space="preserve"
  xmlns="http://www.w3.org/2000/svg"
  viewBox="0 0 192 192"
>
  <g fill="#a1887f">
    <path
      d="M146.156 74.096c0-2.418-1.934-4.835-4.835-4.835H50.423c-2.418 0-4.835 1.934-4.835 4.835 0 16.439 2.417 73.008 26.592 100.568.967.967 1.934 1.45 3.385 1.45h40.614c1.45 0 2.417-.483 3.384-1.45 24.175-27.076 26.593-83.646 26.593-100.568zm-35.779 87.997H81.85c-1.45 0-2.417-.484-3.384-1.45-16.439-19.34-18.373-58.02-18.857-71.559 0-2.417 1.934-4.835 4.835-4.835h63.822c2.418 0 4.835 1.934 4.835 4.835 0 13.538-2.417 51.735-18.856 71.558-1.45.967-2.418 1.451-3.868 1.451zm-5.319-102.502s17.406-10.154 6.77-28.527c-6.286-9.67-9.187-17.889-6.77-21.274-6.285 7.736-16.922 15.956-5.318 33.362 3.868 4.351 5.802 13.538 5.318 16.439zm-19.34 1.45s11.604-6.769 4.352-19.34c-4.352-6.285-6.286-12.087-4.352-14.021-4.351 5.318-11.12 10.637-3.384 22.724 2.417 2.418 3.384 8.703 3.384 10.637z"
    />
    <path
      d="M125.365 117.127c-1.933 13.055-5.801 28.044-14.021 37.714-.967.966-1.934 1.45-2.901 1.45H84.268c-.967 0-2.417-.484-2.901-1.45-5.802-7.253-9.67-16.923-12.088-27.077 0 0 28.044 3.869 43.999-1.933 11.604-4.352 12.087-8.704 12.087-8.704z"
    />
  </g>
</svg>

<svg viewBox="0 0 192 192" xmlns="http://www.w3.org/2000/svg">
  <path
    d="M146.156 74.096C146.156 71.678 144.222 69.261 141.321 69.261H50.423C48.005 69.261 45.588 71.195 45.588 74.096C45.588 90.535 48.005 147.104 72.18 174.664C73.147 175.631 74.114 176.114 75.565 176.114H116.179C117.629 176.114 118.596 175.631 119.563 174.664C143.738 147.588 146.156 91.018 146.156 74.096ZM110.377 162.093H81.85C80.4 162.093 79.433 161.609 78.466 160.643C62.027 141.303 60.093 102.623 59.609 89.084C59.609 86.667 61.543 84.249 64.444 84.249H128.266C130.684 84.249 133.101 86.183 133.101 89.084C133.101 102.622 130.684 140.819 114.245 160.642C112.795 161.609 111.827 162.093 110.377 162.093ZM105.058 59.591C105.058 59.591 122.464 49.437 111.828 31.064C105.542 21.394 102.641 13.175 105.058 9.78998C98.773 17.526 88.136 25.746 99.74 43.152C103.608 47.503 105.542 56.69 105.058 59.591ZM85.718 61.041C85.718 61.041 97.322 54.272 90.07 41.701C85.718 35.416 83.784 29.614 85.718 27.68C81.367 32.998 74.598 38.317 82.334 50.404C84.751 52.822 85.718 59.107 85.718 61.041Z"
    fill="#A1887F"
  />
  <path
    d="M125.365 117.127C123.432 130.182 119.564 145.171 111.344 154.841C110.377 155.807 109.41 156.291 108.443 156.291H84.2681C83.3011 156.291 81.8511 155.807 81.3671 154.841C75.5651 147.588 71.6971 137.918 69.2791 127.764C69.2791 127.764 97.3231 131.633 113.278 125.831C124.882 121.479 125.365 117.127 125.365 117.127Z"
    fill="#A1887F"
  />
</svg>
